X: 14006
T: BARB'S HORNPIPE
C: Bob McQuillen May'10
B: Bob's Note Book 14 #6
%R: hornpipe, reel
%D:2006
Z: 2020 John Chambers <jc:trillian.mit.edu>
M: C	% Actually, no time signature is given in the book.
L: 1/8
K: D
DE \
| FABd Adfa | f2df edBd | Adfd BdAg | f2e2 e2AG |
| FABd Adfa | f2df edBA | dfaf gecd | e2d2 d2  :|
|: de \
| fafd cAFA | BGBd A2FA | BGBd gfed | c2A2 A2FA |
| "G"BGBd "F#"cAce | "Bm"dBdf "G6"eAeg | fafd Aceg | f2d2 d2 :|
%%begintext align
%% When I came out to
%% Folklife this year, I ran into Barb Berry at the
%% Lake City dance, and I realized that she didn't
%% have a tune (HORRORS!), and so here it is, Barb, and
%% it sure is about time. I am so sorry I didn't
%% already have one for you. You should have had it long ago!
%%endtext

%%sep 1 1 500

%%sep 1 1 500

